fs/book_number_24_regular.svg

<svg viewBox="0 0 24 24" fill="none" xmlns="http://www.w3.org/2000/svg" height="1em" width="1em">
  <path d="M11.0242 7.57051L10.8009 8.48015L9.73088 8.48029L9.62911 8.48714C9.26304 8.5368 8.98088 8.8506 8.98088 9.23029L8.98773 9.33206C9.03739 9.69814 9.35119 9.98029 9.73088 9.98029L10.4339 9.98015L10.0459 11.5662L9.25 11.5671L9.14823 11.5739C8.78215 11.6236 8.5 11.9374 8.5 12.3171L8.50685 12.4189C8.55651 12.7849 8.8703 13.0671 9.25 13.0671L9.67887 13.0662L9.55583 13.5734L9.5383 13.6739C9.49956 14.0413 9.73733 14.3899 10.1061 14.4801L10.2066 14.4976C10.574 14.5364 10.9227 14.2986 11.0129 13.9298L11.2229 13.0662H12.7619L12.6444 13.5841L12.6284 13.6848C12.595 14.0528 12.8379 14.3979 13.208 14.4827L13.3087 14.4987C13.6766 14.5321 14.0217 14.2892 14.1065 13.9191L14.3009 13.0662L15.2416 13.0671L15.3433 13.0602C15.7094 13.0106 15.9916 12.6968 15.9916 12.3171L15.9847 12.2153C15.935 11.8492 15.6212 11.5671 15.2416 11.5671L14.6449 11.5662L15.0079 9.98015L15.7279 9.98029L15.8297 9.97345C16.1958 9.92378 16.4779 9.60999 16.4779 9.23029L16.4711 9.12852C16.4214 8.76245 16.1076 8.48029 15.7279 8.48029L15.3519 8.48015L15.4818 7.9162L15.4979 7.81547C15.5312 7.44755 15.2883 7.10244 14.9182 7.01765L14.8175 7.0016C14.4496 6.96825 14.1045 7.21112 14.0197 7.58122L13.8129 8.48015H12.3449L12.4812 7.92691L12.4988 7.82643C12.5375 7.45904 12.2997 7.11041 11.9309 7.02019C11.5286 6.92177 11.1226 7.16816 11.0242 7.57051ZM11.9779 9.98015H13.4689L13.1059 11.5662H11.5899L11.9779 9.98015ZM6.5 2C5.11929 2 4 3.11929 4 4.5V19.5C4 20.8807 5.11929 22 6.5 22H19.75C20.1642 22 20.5 21.6642 20.5 21.25C20.5 20.8358 20.1642 20.5 19.75 20.5H6.5C5.94772 20.5 5.5 20.0523 5.5 19.5H19.75C20.1642 19.5 20.5 19.1642 20.5 18.75V4.5C20.5 3.11929 19.3807 2 18 2H6.5ZM19 18H5.5V4.5C5.5 3.94772 5.94772 3.5 6.5 3.5H18C18.5523 3.5 19 3.94772 19 4.5V18Z" fill="#212121"/>
</svg>

<svg viewBox="0 0 24 24" fill="none" xmlns="http://www.w3.org/2000/svg" height="1em" width="1em">
  <path d="m11.024 7.57-.223.91H9.73l-.102.007a.75.75 0 0 0-.648.743l.007.102a.75.75 0 0 0 .743.648h.703l-.388 1.586-.796.001-.102.007a.75.75 0 0 0-.648.743l.007.102a.75.75 0 0 0 .743.648h.429l-.123.506-.018.1a.75.75 0 0 0 .568.807l.1.018a.75.75 0 0 0 .807-.568l.21-.864h1.539l-.118.518-.016.1a.75.75 0 0 0 .58.799l.1.016a.75.75 0 0 0 .799-.58l.194-.853.94.001.102-.007a.75.75 0 0 0 .649-.743l-.007-.102a.75.75 0 0 0-.743-.648h-.597l.363-1.587h.72l.102-.007a.75.75 0 0 0 .648-.743l-.007-.101a.75.75 0 0 0-.743-.649h-.376l.13-.564.016-.1a.75.75 0 0 0-.58-.798l-.1-.016a.75.75 0 0 0-.798.58l-.207.898h-1.468l.136-.553.018-.1a.75.75 0 0 0-1.475-.256Zm.954 2.41h1.49l-.362 1.586H11.59l.388-1.586ZM6.5 2A2.5 2.5 0 0 0 4 4.5v15A2.5 2.5 0 0 0 6.5 22h13.25a.75.75 0 0 0 0-1.5H6.5a1 1 0 0 1-1-1h14.25a.75.75 0 0 0 .75-.75V4.5A2.5 2.5 0 0 0 18 2H6.5ZM19 18H5.5V4.5a1 1 0 0 1 1-1H18a1 1 0 0 1 1 1V18Z" fill="#212121"/>
</svg>
